resources/themes/cura-light/images/first_run_ultimaker_cloud.svg

<?xml version="1.0" encoding="UTF-8"?>
<svg width="200px" height="135px" viewBox="0 0 200 135" version="1.1" xmlns="http://www.w3.org/2000/svg" xmlns:xlink="http://www.w3.org/1999/xlink">
    <!-- Generator: Sketch 52.6 (67491) - http://www.bohemiancoding.com/sketch -->
    <title>Group-cloud</title>
    <desc>Created with Sketch.</desc>
    <g stroke="none" stroke-width="1" fill="none" fill-rule="evenodd">
        <path d="M184.645934,101.269713 C184.402632,95.7100464 182.987439,90.4490704 180.637153,85.7196609 L184.851695,85.7196609 C187.817797,85.7196609 190.254237,83.3353195 190.254237,80.4326431 L190.36017,80.4326431 L190.36017,16.262763 C190.36017,15.1224259 189.40678,14.2930898 188.347457,14.2930898 L149.933791,14.2930898 L149.933791,63.9459005 C148.198887,63.7202321 146.428947,63.6037711 144.631348,63.6037711 C142.750807,63.6037711 140.900537,63.7312272 139.088982,63.9778345 L139.088982,14.2930898 L138.930084,14.2930898 L138.930084,11.4224041 C138.588831,10.5826557 137.742066,10.0297833 136.824681,10.0297833 L63.0561437,10.0297833 C61.7452327,10.0297833 60.7918428,11.0794119 60.7918428,12.2456657 L60.7918428,84.4367811 C60.7918428,87.7022917 63.5328385,90.3846758 66.8697029,90.3846758 L106.674877,90.3846758 C105.315869,94.3430337 104.579138,98.5831707 104.579138,102.99253 C104.579138,104.646987 104.68286,106.27762 104.884257,107.878484 L65.082097,107.878484 C63.771186,107.995109 62.460275,108.461611 61.5068852,109.277988 L60.7918428,109.977741 C60.0768004,111.143995 58.6467157,111.377246 57.216631,111.377246 L50.7812497,111.377246 C50.4237285,111.377246 50.0662073,111.027369 50.0662073,110.677493 L50.0662073,101.269713 L13.3474575,101.269713 C12.1822033,101.373379 11.0169491,101.788048 10.1694914,102.513717 L9.53389824,103.135719 C8.89830503,104.172389 7.62711862,104.379723 6.35593214,104.379723 L0.635593219,104.379723 C0.317796608,104.379723 -6.39488462e-14,104.068722 -6.39488462e-14,103.757721 C-6.39488462e-14,5.68872783 0.317796608,5.3777268 0.635593219,5.3777268 L50.0662073,5.3777268 L50.0662073,0.699752327 C50.0662073,0.349876165 50.4237285,-1.63424829e-13 50.7812497,-1.63424829e-13 C149.57627,-1.63424829e-13 149.933791,0.349876165 149.933791,0.699752327 L149.933791,5.3777268 L199.364407,5.3777268 C199.682204,5.3777268 200,5.68872783 200,5.99972886 L200,103.757721 C200,104.068722 199.682204,104.379723 199.364407,104.379723 L193.644068,104.379723 C192.478814,104.276056 191.313559,103.861388 190.466102,103.135719 L189.830509,102.513717 C189.194915,101.477046 187.923729,101.269713 186.652543,101.269713 L184.645934,101.269713 Z M50.0662073,14.2930898 L11.5466101,14.2930898 C10.3813559,14.2930898 9.53389824,15.2260929 9.53389824,16.262763 L9.53389824,80.4326431 C9.53389824,83.3353195 11.9703389,85.7196609 14.9364406,85.7196609 L50.0662073,85.7196609 L50.0662073,14.2930898 Z" fill="#08073F" fill-rule="nonzero"></path>
        <g transform="translate(112.574850, 70.658683)" fill="#3282FF">
            <path d="M32.3080573,64.1243454 C14.46481,64.1243454 1.42108547e-14,49.7696217 1.42108547e-14,32.0621727 C1.42108547e-14,14.3547237 14.46481,-4.26325641e-14 32.3080573,-4.26325641e-14 C50.1513046,-4.26325641e-14 64.6161146,14.3547237 64.6161146,32.0621727 C64.6161146,49.7696217 50.1513046,64.1243454 32.3080573,64.1243454 Z M46.2852901,26.9720257 C45.8876525,23.478071 42.9053703,20.8062233 39.3266316,20.8062233 C38.3325376,20.8062233 37.5372623,21.0117501 36.741987,21.4228035 C34.9526177,18.5454291 31.7715167,16.6956884 28.3915969,16.6956884 C22.8246701,16.6956884 18.4506561,21.2172768 18.4506561,26.9720257 C18.4506561,26.9720257 18.4506561,26.9720257 18.4506561,27.1775525 C15.0707363,27.588606 12.4860917,30.6715072 12.4860917,34.165462 C12.4860917,38.0704701 15.6671927,41.3588981 19.4447502,41.3588981 C22.4270324,41.3588981 41.7124574,41.3588981 45.2911961,41.3588981 C49.0687535,41.3588981 52.2498546,38.0704701 52.2498546,34.165462 C52.2498546,30.4659805 49.66521,27.588606 46.2852901,26.9720257 Z"></path>
        </g>
    </g>
</svg>

<?xml version="1.0" encoding="UTF-8" standalone="no"?>
<svg
   xmlns:dc="http://purl.org/dc/elements/1.1/"
   xmlns:cc="http://creativecommons.org/ns#"
   xmlns:rdf="http://www.w3.org/1999/02/22-rdf-syntax-ns#"
   xmlns:svg="http://www.w3.org/2000/svg"
   xmlns="http://www.w3.org/2000/svg"
   xmlns:sodipodi="http://sodipodi.sourceforge.net/DTD/sodipodi-0.dtd"
   xmlns:inkscape="http://www.inkscape.org/namespaces/inkscape"
   width="200px"
   height="135px"
   viewBox="0 0 200 135"
   version="1.1"
   id="svg14"
   sodipodi:docname="first_run_ultimaker_cloud.svg"
   inkscape:version="1.0.2-2 (e86c870879, 2021-01-15)">
  <metadata
     id="metadata20">
    <rdf:RDF>
      <cc:Work
         rdf:about="">
        <dc:format>image/svg+xml</dc:format>
        <dc:type
           rdf:resource="http://purl.org/dc/dcmitype/StillImage" />
      </cc:Work>
    </rdf:RDF>
  </metadata>
  <defs
     id="defs18" />
  <sodipodi:namedview
     pagecolor="#ffffff"
     bordercolor="#666666"
     borderopacity="1"
     objecttolerance="10"
     gridtolerance="10"
     guidetolerance="10"
     inkscape:pageopacity="0"
     inkscape:pageshadow="2"
     inkscape:window-width="1920"
     inkscape:window-height="1001"
     id="namedview16"
     showgrid="false"
     inkscape:zoom="4.2956737"
     inkscape:cx="100.80656"
     inkscape:cy="56.860208"
     inkscape:window-x="-9"
     inkscape:window-y="-9"
     inkscape:window-maximized="1"
     inkscape:current-layer="g12" />
  <!-- Generator: Sketch 52.6 (67491) - http://www.bohemiancoding.com/sketch -->
  <title
     id="title2">Group-cloud</title>
  <desc
     id="desc4">Created with Sketch.</desc>
  <g
     stroke="none"
     stroke-width="1"
     fill="none"
     fill-rule="evenodd"
     id="g12">
    <g
       transform="matrix(2.0673162,0,0,2.0673162,32.202199,1.7521457)"
       fill="#3282FF"
       id="g10">
      <path
         d="M 32.308057,64.124345 C 14.46481,64.124345 0,49.769622 0,32.062173 0,14.354724 14.46481,0 32.308057,0 c 17.843248,0 32.308058,14.354724 32.308058,32.062173 0,17.707449 -14.46481,32.062172 -32.308058,32.062172 z M 46.28529,26.972026 c -0.397637,-3.493955 -3.37992,-6.165803 -6.958658,-6.165803 -0.994094,0 -1.78937,0.205527 -2.584645,0.61658 -1.789369,-2.877374 -4.97047,-4.727115 -8.35039,-4.727115 -5.566927,0 -9.940941,4.521589 -9.940941,10.276338 0,0 0,0 0,0.205526 -3.37992,0.411054 -5.964564,3.493955 -5.964564,6.98791 0,3.905008 3.181101,7.193436 6.958658,7.193436 2.982282,0 22.267707,0 25.846446,0 3.777557,0 6.958659,-3.288428 6.958659,-7.193436 0,-3.699482 -2.584645,-6.576856 -5.964565,-7.193436 z"
         id="path8" />
    </g>
  </g>
</svg>
